X: 1968
T: Yaradan Öyle Yaratmış ki
C: Selânikli Ahmed Bey
O: Turkey
F: http://compmusic.upf.edu/node/140
N: sultaniyegah--sarki--agiraksak--yaradan_oyle--selanikli_ahmed_bey
N: makam= sultaniyegah
N: form= sarki
N: usul= agiraksak = 9/4
M: 9/4
L: 1/16
K: C _B ^c  
Q: 1/4=75
%%MIDI tuningsystem comma53
d2d4e2 f4 g4 abag f2g2 a6=b2 =c'4  | \
w:  ARANAĞME  | 
=c'=bc'd' c'2_b2 abag f2g2 a3g f2g2 a6b2 a4  | 
w:   | 
g3b a2g2 gagf e4 efed c2d2 efed c3B A4  | 
w:   | 
F4 A4 G2F2 E2D2 C2D2 EFED D6A2 B2c2  | \
w:   | 
d2d4e2 f4 g4 abag f2g2 a6=b2 =c'4  | 
w:  ARANAĞME  | 
=c'=bc'd' c'2_b2 abag f2g2 a3g f2g2 a6b2 a4  | \
w:   | 
g3b a2g2 gagf e4 efed c2d2 efed c3B A4  | 
w:   | 
F4 A4 G2F2 E2D2 C2D2 EFED D8 z4  | \
w:   | 
d3f edcB A4 A2A2 d8 e2df e2d2 c2B2  | 
w:  SAZ *  *  *  *  *  *  Ya ra dan  öy  | 
c3B A6e4f2 e2d2 c2d2 e8 ^f2g2  | e3f ede2 z2d4f2 f2e2 e2d2 efed c2d2 e4  | 
w:  *  *  *  le  ya rat *  *  *  mış   |  *  SAZ *  *  *  ki  gü zel *  *  *  lik  | 
d4 f4 e4 d4 c2d2 efed d6A2 B2c2  | \
w:  te  *  *  *  *  *  *  *  se *  ni   SAZ  | 
d3e dcd2 z2d4e2 f8 g4 a4 g2f2  | 
w:  *  *  *  *  *  Gör me miş  çeşm_  | 
f8-f2f4f2 e2d2 c2d2 e2d2 c2B2 cBBA  | \
w:  *  i  fe lek  *  *  *  hiç   | 
A8 z2d4=c2 c2B2 B2A2 A3G GFFE F4  | 
w:  *  gü ze lin  *  *  *  böy   | 
F4 A4 G2F2 E2D2 C2D2 EFED D6A2 B2c2  | \
w:  böy *  *  *  *  *  *  *  le *  si *  ni   SAZ  | 
d3e dcd2 z2d4e2 f8 g4 a4 g2f2  | 
w:  *  *  *  *  *  Gör me miş  çeşm_  | 
f8-f2f4f2 e2d2 c2d2 e2d2 c2B2 cBBA  | \
w:  *  i  fe lek  *  *  *  hiç   | 
A8 z2d4=c2 c2B2 B2A2 A3G GFFE F4  | 
w:  *  gü ze lin  *  *  *  böy   | 
F4 A4 G2F2 E2D2 C2D2 EFED D6a2 g2b2  | \
w:  böy *  *  *  *  *  *  *  le *  si *  ni   SAZ  | 
a3b agfg a4 g2a2 a8 e2f2 g2a2 g2b2  | 
w:  *  *  *  *  *  *  *  Ba kı şın  yok   | 
a8-a2a2 g2f2 e2f2 g2gf f6e2 a2gf  | \
w:  *  mu  *  he le  *  *  *  *  öl  | 
f8-f2f4f2 e2d2 c2d2 e2d2 c2B2 A4  | 
w:  *  dü rü yor  *  *  *  iş  | 
d4 f4 e4 d4 c2d2 efed d6A2 B2c2  | \
w:  te  *  *  *  *  *  *  *  be *  ni   SAZ  | 
d3e dcd2 z2d4e2 f8 g4 a4 g2f2  | 
w:  *  *  *  *  *  Gör me miş  çeşm_  | 
f8-f2f4f2 e2d2 c2d2 e2d2 c2B2 cBBA  | \
w:  *  i  fe lek  *  *  *  hiç   | 
A8 z2d4=c2 c2B2 B2A2 A3G GFFE F4  | 
w:  *  gü ze lin  *  *  *  böy   | 
F4 A4 G2F2 E2D2 C2D2 EFED D6A2 B2c2  | \
w:  böy *  *  *  *  *  *  *  le *  si *  ni   SAZ  | 
d3e dcd2 z2d4e2 f8 g4 a4 g2f2  | 
w:  *  *  *  *  *  Gör me miş  çeşm_  | 
f8-f2f4f2 e2d2 c2d2 e2d2 c2B2 cBBA  | \
w:  *  i  fe lek  *  *  *  hiç   | 
A8 z2d4=c2 c2B2 B2A2 A3G GFFE F4  | 
w:  *  gü ze lin  *  *  *  böy   | 
F4 A4 G2F2 E2D2 C2D2 EFED D6|
w:  böy *  *  *  *  *  *  *  le *  si *  ni    | 


